outputs/icons/communication/outgoing_video_round.svg

<svg xmlns="http://www.w3.org/2000/svg" width="1200" height="1200" fill="none"><path fill="#000" stroke="#1D1E23" stroke-width="100" d="M253.498 949.27c2.033.01 4.066.02 6.16.025 6.814.025 13.63.03 20.445.04 4.885.015 9.771.025 14.657.04 16.052.045 32.104.07 48.157.09q8.3.009 16.599.025c23.026.035 46.052.065 69.078.08l17.912.015h4.496c24 .02 47.998.07 71.998.14 24.68.07 49.36.105 74.045.115 13.84.005 27.68.025 41.52.075q19.551.074 39.11.035 7.149 0 14.29.045c48.87.28 89.605-8.23 127.105-40.965 1.375-1.165 2.75-2.325 4.17-3.525 27.98-25.135 42.955-63.185 45.72-99.465.23-7.405.21-14.795.135-22.2l-.03-5.82q-.037-7.006-.105-14.02c2.525 2.105 2.525 2.105 5.1 4.245 13.655 11.31 27.48 22.335 41.655 33.02 9.875 7.465 19.605 15.09 29.305 22.77 4.35 3.425 8.7 6.845 13.06 10.265q4.05 3.181 8.085 6.385c24.88 19.705 43.44 29.3 76.33 26.305 17.58-2.89 32.33-12.355 43.01-26.13 10.045-15.525 14.045-29.84 13.97-48.19l.03-5.19c.025-5.71.025-11.42.02-17.13q.015-6.156.045-12.32c.035-11.13.045-22.265.05-33.4.005-6.965.01-13.93.025-20.89.04-24.315.055-48.625.055-72.935-.005-22.635.04-45.265.11-67.895q.082-29.183.075-58.365c0-11.607.015-23.215.06-34.823.04-10.924.04-21.847.01-32.771q-.007-5.994.03-11.989c.165-26.462-.915-49.776-18.955-71.267-15.355-15.046-31.75-20.633-53.31-21.355-29.65.695-45.93 15.175-67.65 32.998-6.385 5.179-12.945 10.135-19.525 15.081-14.085 10.651-27.945 21.559-41.79 32.497-9.88 7.799-19.825 15.514-29.795 23.202.05-2.718.1-5.435.155-8.235.635-48.397-7.075-93.414-42.67-129.953-33.65-33.004-73.655-47.467-120.83-47.897-6.695-.016-13.39.009-20.085.036q-7.299-.017-14.59-.044a7949 7949 0 0 0-39.37.002c-13.785.022-27.575.002-41.36-.011-24.63-.016-49.255.01-73.885.052-22.258.038-44.517.032-66.776-.007-25.942-.045-51.883-.062-77.823-.037-13.699.013-27.397.015-41.095-.013a6823 6823 0 0 0-38.656.041q-7.058.017-14.112-.011c-53.212-.191-96.064 10.091-135.477 47.134-26.366 27.331-41.644 62.65-41.635 100.001l-.024 5.422c-.024 5.993-.032 11.987-.041 17.98q-.02 6.448-.043 12.898c-.045 14.121-.068 28.241-.09 42.362l-.026 14.609q-.063 34.334-.091 68.663a31144 31144 0 0 1-.166 79.12c-.065 20.41-.098 40.825-.105 61.235-.004 12.18-.024 24.355-.079 36.53-.05 11.475-.059 22.945-.037 34.42q.001 6.285-.042 12.57c-.337 49.93 12.262 89.805 49.116 126.485 28.462 26.035 65.507 39.81 104.375 39.8Zm-58.721-95.94c-18.779-20.685-22.475-47.895-22.414-74.495l-.015-4.825c-.014-5.295-.012-10.585-.01-15.875-.006-3.815-.014-7.625-.022-11.44-.019-10.33-.025-20.655-.026-30.98q-.003-9.696-.011-19.385-.03-33.855-.028-67.71c.001-20.995-.021-41.99-.056-62.98q-.041-27.096-.039-54.185c.001-10.77-.005-21.541-.028-32.311a8332 8332 0 0 1-.005-30.412q.003-5.556-.016-11.112c-.118-35.541 1.006-68.607 27.661-95.666 21.877-18.648 50.536-21.762 78.553-21.732l5.526-.019c6.071-.018 12.141-.022 18.211-.025l13.11-.031c11.847-.028 23.693-.041 35.539-.051q11.121-.009 22.244-.024 34.854-.044 69.707-.057 40.126-.015 80.252-.107c20.725-.046 41.445-.067 62.17-.069 12.355-.003 24.71-.015 37.065-.053q17.459-.05 34.91-.02c4.245.001 8.495-.008 12.74-.029 48.85-.553 48.85-.553 92.875 17.595 2.325 1.603 4.655 3.207 7.05 4.86 20.39 19.306 26.035 46.237 26.59 73.05.085 7.151.055 14.299.02 21.45l.045 11.912c.04 10.692.025 21.383 0 32.074-.025 11.245-.005 22.492.01 33.737a19433 19433 0 0 1-.045 56.625c-.045 21.755-.03 43.505.015 65.255.04 18.755.045 37.505.025 56.26-.015 11.165-.02 22.33.01 33.5.025 10.5.01 21.005-.04 31.505-.015 3.83-.01 7.665.01 11.495.14 31.23-1.5 63.48-25.01 87.43-30.47 24.95-68.93 23.745-106.67 23.66q-6.577.009-13.155.025c-11.845.02-23.69.01-35.535-.005-12.435-.01-24.87 0-37.3.01q-31.312.006-62.625-.025-36.13-.029-72.26.01-31.096.024-62.192.01c-12.36-.005-24.719-.01-37.079.005-11.623.015-23.246.005-34.869-.02q-6.374-.009-12.749.005c-37.781.075-73.281-.14-102.139-26.83Zm817.213-67.655c-1.35-1.03-2.695-2.06-4.085-3.125-11.72-8.995-23.315-18.135-34.9-27.295-10.515-8.3-21.14-16.445-31.83-24.535-11.095-8.41-22.03-17.015-32.91-25.69a1642 1642 0 0 0-3.995-3.17l-3.99-3.255c-5.29-3.965-5.29-3.965-12.225-8.095-10.8-6.635-19.565-12.29-23.985-24.26-1.115-8.74-1.38-17.115-1.25-25.9-.04-3.205-.08-6.41-.13-9.61-.07-6.69-.04-13.37.07-20.06.12-8.505-.04-16.98-.275-25.48-2.26-36.665-2.26-36.665 11.775-69.005 6.975-6.135 14.435-10.63 22.825-14.72 7.22-3.767 13.3-8.816 19.6-13.863q3.72-2.834 7.455-5.648c8.44-6.427 16.76-12.996 25.08-19.574 15.76-12.451 31.675-24.686 47.725-36.782l4.015-3.038q5.919-4.466 11.845-8.916l3.665-2.768c4.895-4.398 4.895-4.398 10.84-6.296v390.94c-5.21 0-11.225-6.705-15.32-9.855Z"/><path fill="#000" stroke="#1D1E23" stroke-width="20" d="M368.513 744.915a17.4 17.4 0 0 1-3.963-5.635 16.6 16.6 0 0 1-1.391-6.645c0-2.28.473-4.535 1.391-6.645a17.3 17.3 0 0 1 3.963-5.63L563.92 534.72H410.677c-4.847 0-9.495-1.825-12.922-5.085-3.428-3.255-5.353-7.67-5.353-12.275s1.925-9.02 5.353-12.275S405.83 500 410.677 500H608.04c10.09 0 18.275 7.78 18.275 17.36v187.5c0 4.605-1.925 9.02-5.35 12.275-3.43 3.255-8.075 5.085-12.925 5.085-4.845 0-9.495-1.83-12.92-5.085s-5.35-7.67-5.35-12.275V559.275l-195.409 185.64a18.5 18.5 0 0 1-5.93 3.765 19.174 19.174 0 0 1-13.989 0 18.5 18.5 0 0 1-5.929-3.765Z"/></svg>

<svg width="1200" height="1200" viewBox="0 0 1200 1200" fill="none" xmlns="http://www.w3.org/2000/svg"><mask id="path-1-inside-1_8205_217" fill="white"><path d="M253.498 949.27C255.531 949.28 257.564 949.29 259.658 949.295C266.472 949.32 273.288 949.325 280.103 949.335C284.988 949.35 289.874 949.36 294.76 949.375C310.812 949.42 326.864 949.445 342.917 949.465C348.45 949.47 353.983 949.48 359.516 949.49C382.542 949.525 405.568 949.555 428.594 949.57C434.565 949.575 440.536 949.58 446.506 949.585C447.99 949.585 449.474 949.585 451.002 949.585C475.002 949.605 499 949.655 523 949.725C547.68 949.795 572.36 949.83 597.045 949.84C610.885 949.845 624.725 949.865 638.565 949.915C651.6 949.965 664.635 949.975 677.675 949.95C682.44 949.95 687.205 949.965 691.965 949.995C740.835 950.275 781.57 941.765 819.07 909.03C820.445 907.865 821.82 906.705 823.24 905.505C851.22 880.37 866.195 842.32 868.96 806.04C869.19 798.635 869.17 791.245 869.095 783.84C869.085 781.92 869.075 780 869.065 778.02C869.04 773.35 869.005 768.675 868.96 764C871.485 766.105 871.485 766.105 874.06 768.245C887.715 779.555 901.54 790.58 915.715 801.265C925.59 808.73 935.32 816.355 945.02 824.035C949.37 827.46 953.72 830.88 958.08 834.3C960.78 836.42 963.475 838.55 966.165 840.685C991.045 860.39 1009.605 869.985 1042.495 866.99C1060.075 864.1 1074.825 854.635 1085.505 840.86C1095.55 825.335 1099.55 811.02 1099.475 792.67C1099.485 790.955 1099.495 789.245 1099.505 787.48C1099.53 781.77 1099.53 776.06 1099.525 770.35C1099.535 766.245 1099.55 762.14 1099.57 758.03C1099.605 746.9 1099.615 735.765 1099.62 724.63C1099.625 717.665 1099.63 710.7 1099.645 703.74C1099.685 679.425 1099.7 655.115 1099.7 630.805C1099.695 608.17 1099.74 585.54 1099.81 562.91C1099.865 543.455 1099.89 524 1099.885 504.545C1099.885 492.938 1099.9 481.33 1099.945 469.722C1099.985 458.798 1099.985 447.875 1099.955 436.951C1099.95 432.955 1099.96 428.958 1099.985 424.962C1100.15 398.5 1099.07 375.186 1081.03 353.695C1065.675 338.649 1049.28 333.062 1027.72 332.34C998.07 333.035 981.79 347.515 960.07 365.338C953.685 370.517 947.125 375.473 940.545 380.419C926.46 391.07 912.6 401.978 898.755 412.916C888.875 420.715 878.93 428.43 868.96 436.118C869.01 433.4 869.06 430.683 869.115 427.883C869.75 379.486 862.04 334.469 826.445 297.93C792.795 264.926 752.79 250.463 705.615 250.033C698.92 250.017 692.225 250.042 685.53 250.069C680.665 250.058 675.8 250.042 670.94 250.025C657.815 249.986 644.695 250.001 631.57 250.027C617.785 250.049 603.995 250.029 590.21 250.016C565.58 250 540.955 250.026 516.325 250.068C494.067 250.106 471.808 250.1 449.549 250.061C423.607 250.016 397.666 249.999 371.726 250.024C358.027 250.037 344.329 250.039 330.631 250.011C317.745 249.986 304.861 250.004 291.975 250.052C287.27 250.063 282.566 250.06 277.863 250.041C224.651 249.85 181.799 260.132 142.386 297.175C116.02 324.506 100.742 359.825 100.751 397.176C100.743 398.966 100.735 400.755 100.727 402.598C100.703 408.591 100.695 414.585 100.686 420.578C100.673 424.877 100.658 429.176 100.643 433.476C100.598 447.597 100.575 461.717 100.553 475.838C100.544 480.708 100.535 485.578 100.527 490.447C100.485 513.335 100.454 536.225 100.436 559.11C100.415 585.485 100.358 611.855 100.27 638.23C100.205 658.64 100.172 679.055 100.165 699.465C100.161 711.645 100.141 723.82 100.086 735.995C100.036 747.47 100.027 758.94 100.049 770.415C100.05 774.605 100.036 778.795 100.007 782.985C99.67 832.915 112.269 872.79 149.123 909.47C177.585 935.505 214.63 949.28 253.498 949.27ZM194.777 853.33C175.998 832.645 172.302 805.435 172.363 778.835C172.358 777.245 172.353 775.65 172.348 774.01C172.334 768.715 172.336 763.425 172.338 758.135C172.332 754.32 172.324 750.51 172.316 746.695C172.297 736.365 172.291 726.04 172.29 715.715C172.288 709.25 172.284 702.79 172.279 696.33C172.258 673.76 172.25 651.19 172.251 628.62C172.252 607.625 172.23 586.63 172.195 565.64C172.167 547.575 172.155 529.515 172.156 511.455C172.157 500.685 172.151 489.914 172.128 479.144C172.107 469.006 172.107 458.869 172.123 448.732C172.125 445.028 172.12 441.324 172.107 437.62C171.989 402.079 173.113 369.013 199.768 341.954C221.645 323.306 250.304 320.192 278.321 320.222C280.144 320.215 281.968 320.209 283.847 320.203C289.918 320.185 295.988 320.181 302.058 320.178C306.428 320.168 310.799 320.158 315.168 320.147C327.015 320.119 338.861 320.106 350.707 320.096C358.121 320.09 365.536 320.082 372.951 320.072C396.187 320.043 419.422 320.023 442.658 320.015C469.409 320.005 496.159 319.969 522.91 319.908C543.635 319.862 564.355 319.841 585.08 319.839C597.435 319.836 609.79 319.824 622.145 319.786C633.785 319.752 645.42 319.747 657.055 319.766C661.3 319.767 665.55 319.758 669.795 319.737C718.645 319.184 718.645 319.184 762.67 337.332C764.995 338.935 767.325 340.539 769.72 342.192C790.11 361.498 795.755 388.429 796.31 415.242C796.395 422.393 796.365 429.541 796.33 436.692C796.345 440.663 796.36 444.634 796.375 448.604C796.415 459.296 796.4 469.987 796.375 480.678C796.35 491.923 796.37 503.17 796.385 514.415C796.4 533.29 796.38 552.165 796.34 571.04C796.295 592.795 796.31 614.545 796.355 636.295C796.395 655.05 796.4 673.8 796.38 692.555C796.365 703.72 796.36 714.885 796.39 726.055C796.415 736.555 796.4 747.06 796.35 757.56C796.335 761.39 796.34 765.225 796.36 769.055C796.5 800.285 794.86 832.535 771.35 856.485C740.88 881.435 702.42 880.23 664.68 880.145C660.295 880.15 655.91 880.16 651.525 880.17C639.68 880.19 627.835 880.18 615.99 880.165C603.555 880.155 591.12 880.165 578.69 880.175C557.815 880.18 536.94 880.17 516.065 880.15C491.978 880.13 467.892 880.135 443.805 880.16C423.074 880.175 402.344 880.18 381.613 880.17C369.253 880.165 356.894 880.16 344.534 880.175C332.911 880.19 321.288 880.18 309.665 880.155C305.416 880.15 301.166 880.15 296.916 880.16C259.135 880.235 223.635 880.02 194.777 853.33ZM1011.99 785.675C1010.64 784.645 1009.295 783.615 1007.905 782.55C996.185 773.555 984.59 764.415 973.005 755.255C962.49 746.955 951.865 738.81 941.175 730.72C930.08 722.31 919.145 713.705 908.265 705.03C906.945 703.98 905.63 702.935 904.27 701.86C902.295 700.25 902.295 700.25 900.28 698.605C894.99 694.64 894.99 694.64 888.055 690.51C877.255 683.875 868.49 678.22 864.07 666.25C862.955 657.51 862.69 649.135 862.82 640.35C862.78 637.145 862.74 633.94 862.69 630.74C862.62 624.05 862.65 617.37 862.76 610.68C862.88 602.175 862.72 593.7 862.485 585.2C860.225 548.535 860.225 548.535 874.26 516.195C881.235 510.06 888.695 505.565 897.085 501.475C904.305 497.708 910.385 492.659 916.685 487.612C919.165 485.723 921.65 483.84 924.14 481.964C932.58 475.537 940.9 468.968 949.22 462.39C964.98 449.939 980.895 437.704 996.945 425.608C998.27 424.606 999.595 423.603 1000.96 422.57C1004.905 419.592 1008.855 416.622 1012.805 413.654C1014.015 412.741 1015.225 411.827 1016.47 410.886C1021.365 406.488 1021.365 406.488 1027.31 404.59C1027.31 533.6 1027.31 662.61 1027.31 795.53C1022.1 795.53 1016.085 788.825 1011.99 785.675Z"/></mask><path d="M253.498 949.27C255.531 949.28 257.564 949.29 259.658 949.295C266.472 949.32 273.288 949.325 280.103 949.335C284.988 949.35 289.874 949.36 294.76 949.375C310.812 949.42 326.864 949.445 342.917 949.465C348.45 949.47 353.983 949.48 359.516 949.49C382.542 949.525 405.568 949.555 428.594 949.57C434.565 949.575 440.536 949.58 446.506 949.585C447.99 949.585 449.474 949.585 451.002 949.585C475.002 949.605 499 949.655 523 949.725C547.68 949.795 572.36 949.83 597.045 949.84C610.885 949.845 624.725 949.865 638.565 949.915C651.6 949.965 664.635 949.975 677.675 949.95C682.44 949.95 687.205 949.965 691.965 949.995C740.835 950.275 781.57 941.765 819.07 909.03C820.445 907.865 821.82 906.705 823.24 905.505C851.22 880.37 866.195 842.32 868.96 806.04C869.19 798.635 869.17 791.245 869.095 783.84C869.085 781.92 869.075 780 869.065 778.02C869.04 773.35 869.005 768.675 868.96 764C871.485 766.105 871.485 766.105 874.06 768.245C887.715 779.555 901.54 790.58 915.715 801.265C925.59 808.73 935.32 816.355 945.02 824.035C949.37 827.46 953.72 830.88 958.08 834.3C960.78 836.42 963.475 838.55 966.165 840.685C991.045 860.39 1009.605 869.985 1042.495 866.99C1060.075 864.1 1074.825 854.635 1085.505 840.86C1095.55 825.335 1099.55 811.02 1099.475 792.67C1099.485 790.955 1099.495 789.245 1099.505 787.48C1099.53 781.77 1099.53 776.06 1099.525 770.35C1099.535 766.245 1099.55 762.14 1099.57 758.03C1099.605 746.9 1099.615 735.765 1099.62 724.63C1099.625 717.665 1099.63 710.7 1099.645 703.74C1099.685 679.425 1099.7 655.115 1099.7 630.805C1099.695 608.17 1099.74 585.54 1099.81 562.91C1099.865 543.455 1099.89 524 1099.885 504.545C1099.885 492.938 1099.9 481.33 1099.945 469.722C1099.985 458.798 1099.985 447.875 1099.955 436.951C1099.95 432.955 1099.96 428.958 1099.985 424.962C1100.15 398.5 1099.07 375.186 1081.03 353.695C1065.675 338.649 1049.28 333.062 1027.72 332.34C998.07 333.035 981.79 347.515 960.07 365.338C953.685 370.517 947.125 375.473 940.545 380.419C926.46 391.07 912.6 401.978 898.755 412.916C888.875 420.715 878.93 428.43 868.96 436.118C869.01 433.4 869.06 430.683 869.115 427.883C869.75 379.486 862.04 334.469 826.445 297.93C792.795 264.926 752.79 250.463 705.615 250.033C698.92 250.017 692.225 250.042 685.53 250.069C680.665 250.058 675.8 250.042 670.94 250.025C657.815 249.986 644.695 250.001 631.57 250.027C617.785 250.049 603.995 250.029 590.21 250.016C565.58 250 540.955 250.026 516.325 250.068C494.067 250.106 471.808 250.1 449.549 250.061C423.607 250.016 397.666 249.999 371.726 250.024C358.027 250.037 344.329 250.039 330.631 250.011C317.745 249.986 304.861 250.004 291.975 250.052C287.27 250.063 282.566 250.06 277.863 250.041C224.651 249.85 181.799 260.132 142.386 297.175C116.02 324.506 100.742 359.825 100.751 397.176C100.743 398.966 100.735 400.755 100.727 402.598C100.703 408.591 100.695 414.585 100.686 420.578C100.673 424.877 100.658 429.176 100.643 433.476C100.598 447.597 100.575 461.717 100.553 475.838C100.544 480.708 100.535 485.578 100.527 490.447C100.485 513.335 100.454 536.225 100.436 559.11C100.415 585.485 100.358 611.855 100.27 638.23C100.205 658.64 100.172 679.055 100.165 699.465C100.161 711.645 100.141 723.82 100.086 735.995C100.036 747.47 100.027 758.94 100.049 770.415C100.05 774.605 100.036 778.795 100.007 782.985C99.67 832.915 112.269 872.79 149.123 909.47C177.585 935.505 214.63 949.28 253.498 949.27ZM194.777 853.33C175.998 832.645 172.302 805.435 172.363 778.835C172.358 777.245 172.353 775.65 172.348 774.01C172.334 768.715 172.336 763.425 172.338 758.135C172.332 754.32 172.324 750.51 172.316 746.695C172.297 736.365 172.291 726.04 172.29 715.715C172.288 709.25 172.284 702.79 172.279 696.33C172.258 673.76 172.25 651.19 172.251 628.62C172.252 607.625 172.23 586.63 172.195 565.64C172.167 547.575 172.155 529.515 172.156 511.455C172.157 500.685 172.151 489.914 172.128 479.144C172.107 469.006 172.107 458.869 172.123 448.732C172.125 445.028 172.12 441.324 172.107 437.62C171.989 402.079 173.113 369.013 199.768 341.954C221.645 323.306 250.304 320.192 278.321 320.222C280.144 320.215 281.968 320.209 283.847 320.203C289.918 320.185 295.988 320.181 302.058 320.178C306.428 320.168 310.799 320.158 315.168 320.147C327.015 320.119 338.861 320.106 350.707 320.096C358.121 320.09 365.536 320.082 372.951 320.072C396.187 320.043 419.422 320.023 442.658 320.015C469.409 320.005 496.159 319.969 522.91 319.908C543.635 319.862 564.355 319.841 585.08 319.839C597.435 319.836 609.79 319.824 622.145 319.786C633.785 319.752 645.42 319.747 657.055 319.766C661.3 319.767 665.55 319.758 669.795 319.737C718.645 319.184 718.645 319.184 762.67 337.332C764.995 338.935 767.325 340.539 769.72 342.192C790.11 361.498 795.755 388.429 796.31 415.242C796.395 422.393 796.365 429.541 796.33 436.692C796.345 440.663 796.36 444.634 796.375 448.604C796.415 459.296 796.4 469.987 796.375 480.678C796.35 491.923 796.37 503.17 796.385 514.415C796.4 533.29 796.38 552.165 796.34 571.04C796.295 592.795 796.31 614.545 796.355 636.295C796.395 655.05 796.4 673.8 796.38 692.555C796.365 703.72 796.36 714.885 796.39 726.055C796.415 736.555 796.4 747.06 796.35 757.56C796.335 761.39 796.34 765.225 796.36 769.055C796.5 800.285 794.86 832.535 771.35 856.485C740.88 881.435 702.42 880.23 664.68 880.145C660.295 880.15 655.91 880.16 651.525 880.17C639.68 880.19 627.835 880.18 615.99 880.165C603.555 880.155 591.12 880.165 578.69 880.175C557.815 880.18 536.94 880.17 516.065 880.15C491.978 880.13 467.892 880.135 443.805 880.16C423.074 880.175 402.344 880.18 381.613 880.17C369.253 880.165 356.894 880.16 344.534 880.175C332.911 880.19 321.288 880.18 309.665 880.155C305.416 880.15 301.166 880.15 296.916 880.16C259.135 880.235 223.635 880.02 194.777 853.33ZM1011.99 785.675C1010.64 784.645 1009.295 783.615 1007.905 782.55C996.185 773.555 984.59 764.415 973.005 755.255C962.49 746.955 951.865 738.81 941.175 730.72C930.08 722.31 919.145 713.705 908.265 705.03C906.945 703.98 905.63 702.935 904.27 701.86C902.295 700.25 902.295 700.25 900.28 698.605C894.99 694.64 894.99 694.64 888.055 690.51C877.255 683.875 868.49 678.22 864.07 666.25C862.955 657.51 862.69 649.135 862.82 640.35C862.78 637.145 862.74 633.94 862.69 630.74C862.62 624.05 862.65 617.37 862.76 610.68C862.88 602.175 862.72 593.7 862.485 585.2C860.225 548.535 860.225 548.535 874.26 516.195C881.235 510.06 888.695 505.565 897.085 501.475C904.305 497.708 910.385 492.659 916.685 487.612C919.165 485.723 921.65 483.84 924.14 481.964C932.58 475.537 940.9 468.968 949.22 462.39C964.98 449.939 980.895 437.704 996.945 425.608C998.27 424.606 999.595 423.603 1000.96 422.57C1004.905 419.592 1008.855 416.622 1012.805 413.654C1014.015 412.741 1015.225 411.827 1016.47 410.886C1021.365 406.488 1021.365 406.488 1027.31 404.59C1027.31 533.6 1027.31 662.61 1027.31 795.53C1022.1 795.53 1016.085 788.825 1011.99 785.675Z" fill="black" stroke="#1D1E23" stroke-width="100"/><path d="M368.513 744.915C366.816 743.3 365.469 741.385 364.55 739.28C363.632 737.175 363.159 734.915 363.159 732.635C363.159 730.355 363.632 728.1 364.55 725.99C365.469 723.885 366.816 721.97 368.513 720.36L563.92 534.72L410.677 534.72C405.83 534.72 401.182 532.895 397.755 529.635C394.327 526.38 392.402 521.965 392.402 517.36C392.402 512.755 394.327 508.34 397.755 505.085C401.182 501.83 405.83 500 410.677 500L608.04 500C618.13 500 626.315 507.78 626.315 517.36L626.315 704.86C626.315 709.465 624.39 713.88 620.965 717.135C617.535 720.39 612.89 722.22 608.04 722.22C603.195 722.22 598.545 720.39 595.12 717.135C591.695 713.88 589.77 709.465 589.77 704.86L589.77 559.275L394.361 744.915C392.664 746.525 390.649 747.805 388.431 748.68C386.214 749.55 383.838 750 381.437 750C379.037 750 376.66 749.55 374.442 748.68C372.225 747.805 370.211 746.525 368.513 744.915Z" fill="black" stroke="#1D1E23" stroke-width="20"/></svg>
